svgs/regular/child.svg

<svg xmlns="http://www.w3.org/2000/svg" viewBox="0 0 320 512"><!--! Font Awesome Pro 6.3.0 by @fontawesome - https://fontawesome.com License - https://fontawesome.com/license (Commercial License) Copyright 2023 Fonticons, Inc. --><path d="M160 96a24 24 0 1 0 0-48 24 24 0 1 0 0 48zm0-96a72 72 0 1 1 0 144A72 72 0 1 1 160 0zM128 214V336h64V214.4c-10.2-4.2-21.2-6.4-32.4-6.4c-11 0-21.6 2.1-31.6 6zm0 170V488c0 13.3-10.7 24-24 24s-24-10.7-24-24V257.9L43.7 309.8c-7.6 10.9-22.6 13.5-33.4 5.9S-3.3 293.1 4.3 282.2L50.1 217c25-35.7 65.9-57 109.5-57c43.2 0 83.7 20.8 108.8 56L315.5 282c7.7 10.8 5.2 25.8-5.6 33.5s-25.8 5.2-33.5-5.6L240 258.9V488c0 13.3-10.7 24-24 24s-24-10.7-24-24V384H128z"/></svg>

<svg xmlns="http://www.w3.org/2000/svg" viewBox="0 0 320 512"><!--! Font Awesome Pro 6.2.0 by @fontawesome - https://fontawesome.com License - https://fontawesome.com/license (Commercial License) Copyright 2022 Fonticons, Inc. --><path d="M87.1 72C87.1 32.24 120.2 0 159.1 0C199.8 0 231.1 32.24 231.1 72C231.1 111.8 199.8 144 159.1 144C120.2 144 87.1 111.8 87.1 72V72zM159.1 96C173.3 96 183.1 85.25 183.1 72C183.1 58.75 173.3 48 159.1 48C146.7 48 135.1 58.75 135.1 72C135.1 85.25 146.7 96 159.1 96zM128 384V488C128 501.3 117.3 512 104 512C90.75 512 80 501.3 80 488V257.9L43.66 309.8C36.05 320.6 21.08 323.3 10.23 315.7C-.6269 308-3.259 293.1 4.349 282.2L50.1 216.1C75.12 181.3 115.1 159.1 159.6 159.1C202.7 159.1 243.2 180.8 268.3 215.1L315.5 282C323.2 292.8 320.7 307.8 309.1 315.5C299.2 323.2 284.2 320.7 276.5 309.9L240 258.9V488C240 501.3 229.3 512 216 512C202.7 512 192 501.3 192 488V384L128 384zM128 336H192V214.4C181.8 210.2 170.8 208 159.6 208C148.6 208 137.9 210.1 128 214V336z"/></svg>
